src/assets/icons/moka.svg

<svg xmlns="http://www.w3.org/2000/svg" width="176" height="176" viewBox="0 0 176 176">
  <g fill-rule="evenodd">
    <path d="M119.99934 120L136.763932 153.527864C139.233825 158.467649 137.231581 164.474379 132.291796 166.944272 130.903242 167.638549 129.372111 168 127.81966 168L48.1803399 168C42.6574924 168 38.1803399 163.522847 38.1803399 158 38.1803399 156.447549 38.5417908 154.916418 39.236068 153.527864L55.9993399 120 65.4753399 120 47.9806599 154.177316C47.6918587 154.741485 47.5412527 155.366207 47.5412527 156 47.5412527 158.142195 49.2252212 159.891079 51.3416124 159.995105L51.5412527 160 124.458747 160C125.09254 160 125.717262 159.849394 126.281432 159.560593 128.184459 158.586424 128.974545 156.297811 128.111206 154.368941L128.01934 154.177316 110.52334 120 119.99934 120zM68.9442719 112L110.566019 112C113.324339 112 115.888098 113.420958 117.350005 115.760008L120 120 120 120 56 120C58.4514643 115.097071 63.4626312 112 68.9442719 112z"/>
    <path d="M120.513846,32 L140.994699,74.2554157 C141.958206,76.2433667 141.12773,78.6359963 139.139779,79.5995035 C138.595971,79.8630732 137.99951,80 137.395195,80 L49.6758462,80 C44.1529987,80 39.6758462,75.5228475 39.6758462,70 C39.6758462,68.447549 40.0372971,66.9164184 40.7315742,65.527864 L57.4948462,32 L66.9708462,32 L49.4702544,66.1888642 C49.1825425,66.7509061 49.0319698,67.3730749 49.0308535,68.0044764 C49.0270659,70.1466684 50.7079396,71.8985266 52.8241436,72.0062941 L53.023775,72.0115424 L130.860445,72.1491626 C131.01925,72.1494434 131.175839,72.111899 131.31725,72.0396369 C131.773917,71.8062777 131.974631,71.2701885 131.799762,70.8010368 L131.752686,70.6941275 L111.978846,32 L120.513846,32 Z" transform="rotate(-180 88.749 56)"/>
    <path d="M120,76 L120,94 C120,99.5228475 115.522847,104 110,104 L66,104 C60.4771525,104 56,99.5228475 56,94 L56,76 L120,76 Z M108,83 L68,83 C65.790861,83 64,84.790861 64,87 L64,87 L64,92 C64,94.209139 65.790861,96 68,96 L68,96 L108,96 C110.209139,96 112,94.209139 112,92 L112,92 L112,87 C112,84.790861 110.209139,83 108,83 L108,83 Z"/>
    <path d="M117,96 L117,120 L59,120 L59,96 L117,96 Z M107,104 L71,104 C68.790861,104 67,105.790861 67,108 C67,110.209139 68.790861,112 71,112 L71,112 L107,112 C109.209139,112 111,110.209139 111,108 C111,105.790861 109.209139,104 107,104 L107,104 Z"/>
    <path d="M78.4691816 112L79 112C80.9159761 112 82.4691816 113.553206 82.4691816 115.469182 82.4691816 115.633339 82.45753 115.79729 82.4343146 115.959798L75.4906164 164.565685C75.2091028 166.53628 73.5214199 168 71.5308184 168L71 168C69.0840239 168 67.5308184 166.446794 67.5308184 164.530818 67.5308184 164.366661 67.54247 164.20271 67.5656854 164.040202L74.5093836 115.434315C74.7908972 113.46372 76.4785801 112 78.4691816 112zM97 112L97.5308184 112C99.5214199 112 101.209103 113.46372 101.490616 115.434315L108.434315 164.040202C108.705275 165.936922 107.387336 167.694173 105.490616 167.965133 105.328108 167.988348 105.164158 168 105 168L104.469182 168C102.47858 168 100.790897 166.53628 100.509384 164.565685L93.5656854 115.959798C93.2947255 114.063078 94.6126641 112.305827 96.5093836 112.034867 96.6718915 112.011652 96.8358423 112 97 112z"/>
    <path d="M104.421462,32 L105,32 C106.889621,32 108.421462,33.5318406 108.421462,35.4214618 C108.421462,35.5990053 108.407642,35.7762794 108.380129,35.9516781 L101.530216,79.6198711 C101.224958,81.5658948 99.5483582,83 97.5785382,83 L97,83 C95.1103788,83 93.5785382,81.4681594 93.5785382,79.5785382 C93.5785382,79.4009947 93.5923576,79.2237206 93.6198711,79.0483219 L100.469784,35.3801289 C100.775042,33.4341052 102.451642,32 104.421462,32 Z" transform="rotate(-180 101 57.5)"/>
    <path d="M71,32 L71.5785382,32 C73.5483582,32 75.2249577,33.4341052 75.5302163,35.3801289 L82.3801289,79.0483219 C82.6729593,80.9151156 81.39701,82.6658367 79.5302163,82.9586671 C79.3548176,82.9861806 79.1775435,83 79,83 L78.4214618,83 C76.4516418,83 74.7750423,81.5658948 74.4697837,79.6198711 L67.6198711,35.9516781 C67.3270407,34.0848844 68.60299,32.3341633 70.4697837,32.0413329 C70.6451824,32.0138194 70.8224565,32 71,32 Z" transform="rotate(-180 75 57.5)"/>
    <path d="M88,20 C104.709392,20 119.578025,24.6984228 129.09139,32.0000799 L115.240005,32.0001336 C107.403238,28.8375253 98.0477293,27 88,27 C77.9522707,27 68.5967624,28.8375253 60.7599949,32.0001336 L46.9084252,32.0002215 C56.4217824,24.6984835 71.2904999,20 88,20 Z"/>
    <path d="M84.5945053,8 L91.2781583,8 C93.4872973,8 95.2781583,9.790861 95.2781583,12 C95.2781583,12.2203234 95.259955,12.4402702 95.223734,12.6575959 L93.5570673,22.6575959 C93.2356087,24.5863478 91.5668483,26 89.6114916,26 L85.9846112,26 C83.9882783,26 82.2975762,24.528066 82.0227078,22.5507465 L80.6326019,12.5507465 C80.328433,10.3626477 81.85566,8.34226553 84.0437588,8.03809663 C84.2262445,8.01272919 84.4102649,8 84.5945053,8 Z"/>
    <rect width="27" height="16" x="129" y="32" rx="4"/>
    <rect width="11" height="56" x="145" y="32" rx="4"/>
  </g>
</svg>

<svg xmlns="http://www.w3.org/2000/svg" viewBox="0 0 176 176">
    <g fill-rule="evenodd">
        <path d="M120 120l16.764 33.528c2.47 4.94.468 10.946-4.472 13.416A10 10 0 01127.82 168H48.18c-5.523 0-10-4.477-10-10a10 10 0 011.056-4.472L56 120h9.476l-17.494 34.177a4 4 0 003.36 5.818l.2.005h72.918a4 4 0 003.652-5.631l-.092-.192L110.523 120H120zm-51.056-8h41.622a8 8 0 016.784 3.76L120 120H56c2.451-4.903 7.463-8 12.944-8zM56.984 80l-20.48-42.255A4 4 0 0140.102 32h87.72c5.522 0 10 4.477 10 10a10 10 0 01-1.057 4.472L120.003 80h-9.476l17.5-34.189a4 4 0 00-3.353-5.817l-.2-.006-77.836-.137a1 1 0 00-.94 1.348l.047.107L65.52 80h-8.535z"/>
        <path d="M120 76v18c0 5.523-4.477 10-10 10H66c-5.523 0-10-4.477-10-10V76h64zm-12 7H68a4 4 0 00-4 4v5a4 4 0 004 4h40a4 4 0 004-4v-5a4 4 0 00-4-4z"/>
        <path d="M117 96v24H59V96h58zm-10 8H71a4 4 0 100 8h36a4 4 0 100-8z"/>
        <path d="M78.47 112H79a3.47 3.47 0 013.434 3.96l-6.943 48.606A4 4 0 0171.53 168H71a3.47 3.47 0 01-3.434-3.96l6.943-48.606A4 4 0 0178.47 112zM97 112h.53a4 4 0 013.96 3.434l6.944 48.606A3.47 3.47 0 01105 168h-.53a4 4 0 01-3.96-3.434l-6.944-48.606A3.47 3.47 0 0197 112zM97.579 83H97a3.421 3.421 0 01-3.38-3.952l6.85-43.668A4 4 0 01104.42 32H105a3.421 3.421 0 013.38 3.952l-6.85 43.668A4 4 0 0197.58 83zM79 83h-.579a4 4 0 01-3.951-3.38l-6.85-43.668A3.421 3.421 0 0171 32h.579a4 4 0 013.951 3.38l6.85 43.668A3.421 3.421 0 0179 83z"/>
        <path d="M88 20c16.71 0 31.578 4.698 41.091 12H115.24c-7.837-3.162-17.192-5-27.24-5-10.048 0-19.403 1.838-27.24 5H46.908C56.422 24.698 71.29 20 88 20z"/>
        <path d="M84.595 8h6.683a4 4 0 013.946 4.658l-1.667 10A4 4 0 0189.611 26h-3.626a4 4 0 01-3.962-3.45l-1.39-10A4 4 0 0184.595 8z"/>
        <rect width="27" height="16" x="129" y="32" rx="4"/>
        <rect width="11" height="56" x="145" y="32" rx="4"/>
    </g>
</svg>
